X:1
T:White Christmas
T:White Christmas
T:Irvin Berlin
T:Irvin Berlin
C:Irvin Berlin
Z:Irvin Berlin
%%score 1 2 3
L:1/8
Q:1/4=80
M:2/4
K:Eb
V:1 treble nm="Flute" snm="Fl."
V:2 treble nm="Flute" snm="Fl."
V:3 treble nm="Flute" snm="Fl."
V:1
"_I'm" g4 |"_dream-ing of a" ag ^fg |"_white" a4 |"_Christ-mas" =a b3 |"_just like the" c'2 d'e' | %5
"_ones I used to" f'e' d'c' |"_know" b4 | z2"_where the" ef |"_tree-tops" g2 g2 | %9
"_glis-ten and" g c'2 b |"_chil-dren" e2 e2 |"_lis-ten to" e b2 a |"_hear" g4 | %13
"_sleigh bells in the" ag fe |"_snow________" ((f4 | f2) ^f2) |"_I'm" g4 | %17
"_dream-ing of a" ag ^fg |"_white" a4 |"_Christ-mas" =a b3 |"_with ev-ry" c'2 d'e' | %21
"_Christ-mas card I" f'e' d'c' |"_write." b4 | z2"_May your" ef |"_days be" g2 g2 | %25
"_mer-ry and" g c'2 b |"_Bright________" (e'4 | !fermata!e'2)"_and may" ef |"_all your" g2 g2 | %29
"_Christ-mas-es be" c'c' dd |"_White_____________________" (e4 |"^rit." (e4) | !fermata!e4) |] %33
V:2
"_I'm" e4 |"_dream-ing of a" ee ee |"_white" e4 |"_Christ-mas" =e f3 |"_just like the" a2 bc' | %5
"_ones I used to" d'c' b=a |"_know   to" g3 f |"_know, where the" e2 ee |"_tree-tops" d2 e2 | %9
"_glis-ten and" f2 gg |"_chil-dren" c2 c2 |"_lis-ten to" c2 _cc |"_hear" B4 | %13
"_sleigh bells in the" ee ce |"_snow.in the" e2 dc |"_snow." d4 |"_I'm" e4 | %17
"_dream-ing of a" ee ee |"_white" e4 |"_Christ-mas" =e f3 |"_with ev-ry" a2 bc' | %21
"_Christ-mas card I" d'c' b=a |"_write. I" b2 a2 |"_write." g2 z2 |"_May your" e2 e2 | %25
"_days be" f2 g2 |"_mer-ry and" b2 ag |"_bright   and may" !fermata!f2 ee |"_all your" e2 =e2 | %29
"_Christ-mas-es be" ff BB |"_White your" !fermata!B2 c2 |"^rit.""_Christ-mas-es be" dd c_c | %32
"_White" !fermata!B4 |] %33
V:3
"_I'm__\n" (e2 d2) |"_dream-ing of a" cB =AB |"_white" c4 |"_Christ-mas" ^c d3 | %4
"_just__ like the" (ag) fe |"_ones I used to" de f^f |"_know, I used to" gf ed | %7
"_know, where the" c2 _cc |"_tree-tops" B2 c2 |"_glis-ten and" _d2 e_d |"_chil-dren" c2 B2 | %11
"_lis-ten_____" A2 (f2 | f2)"_to hear" ed |"_sleigh bells in the" cB =AA |"_snow________" (_A4 | %15
 B4) |"_I'm__\n" e2 d2 |"_dream-ing of a" cB =AB |"_white" c4 |"_Christ-mas" ^c d3 | %20
"_with__ ev-ry" ag fe |"_Christ-mas card I" de f^f |"_write. I" g2 f2 |"_write." e2 z2 | %24
"_May your" e2 d2 |"_days be" _d2 e2 |"_mer  -" c4 |"_ry and may" !fermata!_c2 cc | %28
"_all your" B2 B2 |"_Christ-mas-es be" AA AA |"_White your" !fermata!G2 A2 | %31
"^rit.""_Christ-mas-es be" BB AF |"_White" !fermata!G4 |] %33

